X: 5
T: Yonder the Smoke Was Standing
N: Derived from pawnee05.krn
O: Oklahoma, U.S.A.
N: from Pawnee Music by Frances Densmore, 1926
Z: transcribed to **kern format by David Huron, August 2000
C: Skidi and Chaui Bands, 1919
L: 1/8
M: 2/4
Q: 1/4=88
K: G clef=bass
%%linebreak <none>
D D D D | 
!fermata!D> D D D[M:3/4] | 
D2D4[M:2/4] | 
D E D D[M:3/4] | 
A,2(A,/ G,) A,< A, E,/[M:2/4] | 
E,2D,2 | 
(E,/ D,) E,< E, D,/ | 
D,2D,2- | 
D,4 | 
E2(3D D D | 
E> DD2[M:3/4] | 
A,2(A,/ G,) A,< A, E,/[M:2/4] | 
E,2D,2 | 
(E,/ D,) E,< E, D,/ | 
D,2D,2- | 
D,4 |]  



